icon-vegetarian.svg

<svg fill="none" height="800" viewBox="0 0 24 24" width="800" xmlns="http://www.w3.org/2000/svg"><path clip-rule="evenodd" d="m1.29537 3.70958c-.391888-.38916-.394102-1.02232-.00495-1.41421.38916-.39189 1.02232-.3941 1.41421-.00495 4.27016 4.2404 7.51647 9.32698 9.44877 15.47178.1448-.2825.2997-.5734.4622-.8687-.1304-.2129-.2228-.454-.2664-.7154l-.2292-1.375c-.7062-4.2376 2.0605-8.27642 6.2671-9.14858l1.0898-.22595c1.0891-.22583 2.1533.48047 2.3683 1.57187l.243 1.23394c.8716 4.42512-2.0852 8.69562-6.5339 9.43712l-.9035.1505c-.0933.0156-.1861.0244-.2781.0269-.3485.6326-.653 1.2311-.8891 1.7531-.1715.3793-.3001.7036-.3833.9623-.0414.1289-.0684.2317-.0843.31-.0138.0686-.0158.102-.0161.1076v.0008l-.0001-.0008c.0078.4298-.2599.8164-.665.9604-.405.1439-.8567.0129-1.1218-.3254l-8.81822-11.25c-.34071-.43466-.26454-1.06323.17013-1.40393.43467-.34071 1.06323-.26455 1.40394.17012l5.50638 7.02491c-1.87029-4.849-4.65478-8.94792-8.17986-12.44842zm14.41503 11.88792c3.0632-.7709 5.037-3.8214 4.4155-6.97664l-.243-1.23394-1.0898.22595c-3.1391.65084-5.2091 3.65293-4.708 6.81363.922-1.4408 1.9069-2.7973 2.6925-3.618.3819-.399 1.015-.4128 1.4139-.0309.399.382.4128 1.015.0309 1.4139-.6807.711-1.6122 1.9919-2.512 3.406z" fill="#000" fill-rule="evenodd"/></svg>

<?xml version="1.0" encoding="utf-8"?><!-- Uploaded to: SVG Repo, www.svgrepo.com, Generator: SVG Repo Mixer Tools -->
<svg width="800px" height="800px" viewBox="0 0 24 24" fill="none" xmlns="http://www.w3.org/2000/svg">
<path fill-rule="evenodd" clip-rule="evenodd" d="M1.29537 3.70958C0.903482 3.32042 0.901268 2.68726 1.29042 2.29537C1.67958 1.90348 2.31274 1.90127 2.70463 2.29042C6.97479 6.53082 10.2211 11.6174 12.1534 17.7622C12.2982 17.4797 12.4531 17.1888 12.6156 16.8935C12.4852 16.6806 12.3928 16.4395 12.3492 16.1781L12.12 14.8031C11.4138 10.5655 14.1805 6.52668 18.3871 5.65452L19.4769 5.42857C20.566 5.20274 21.6302 5.90904 21.8452 7.00044L22.0882 8.23438C22.9598 12.6595 20.003 16.93 15.5543 17.6715L14.6508 17.822C14.5575 17.8376 14.4647 17.8464 14.3727 17.8489C14.0242 18.4815 13.7197 19.08 13.4836 19.602C13.3121 19.9813 13.1835 20.3056 13.1003 20.5643C13.0589 20.6932 13.0319 20.796 13.016 20.8743C13.0022 20.9429 13.0002 20.9763 12.9999 20.9819C12.9999 20.9825 12.9999 20.9827 12.9999 20.9827L12.9998 20.9819C13.0076 21.4117 12.7399 21.7983 12.3348 21.9423C11.9298 22.0862 11.4781 21.9552 11.213 21.6169L2.39478 10.3669C2.05407 9.93224 2.13024 9.30367 2.56491 8.96297C2.99958 8.62226 3.62814 8.69842 3.96885 9.13309L9.47523 16.158C7.60494 11.309 4.82045 7.21008 1.29537 3.70958ZM15.7104 15.5975C18.7736 14.8266 20.7474 11.7761 20.1259 8.62086L19.8829 7.38692L18.7931 7.61287C15.654 8.26371 13.584 11.2658 14.0851 14.4265C15.0071 12.9857 15.992 11.6292 16.7776 10.8085C17.1595 10.4095 17.7926 10.3957 18.1915 10.7776C18.5905 11.1596 18.6043 11.7926 18.2224 12.1915C17.5417 12.9025 16.6102 14.1834 15.7104 15.5975Z" fill="#000000"/>
</svg>
